X: 31319
T: Paddy Kenny's
R: polka
M: 2/4
K: Gmajor
|:D|GA/G/ ED|GB d^c/d/|ed BG|A/B/A/G/ ED|
G2 ED|GB d>d|e/f/e/d/ BA|G2- G:|
|:B|d2- d^c/d/|ed BG|Gc- cB/c/|ed Bc|
de/d/ d^c/d/|e/f/e/d/ BG|FA D/E/F|G2- G:|

